X: 40680
T: Topphuvv'leken
R: waltz
M: 3/4
K: Amajor
"D"ag/a/ b>g a>f|"A"fe ec Ac|"E"cB/c/ d>B GB|"A"BA Ac eg|
"D"ag/a/ b>g a>f|"A"fe ec Ac|"E"cB/c/ d>B GB|"A"BA A4:|
|:"A"A,>B,C2C2|"D"D>EF2F2|"E"F>G G2G2|"A"A2A2G>F|E>D C2C2|"D"D>EF2F2|
"E"G2G>A B>G|"A"A2A4:|"A"c2ec (3ABc|"D"d2fd B2|"E" g2 bg (3efg|
a2c'a ed|c2ec (3ABc|"D"d2fdB2|"E"g2bg (3efg|"A"a2a4:|

